Sources/FrostedUI/Resources/Icons.xcassets/listCheck16.imageset/list-check-16.svg

<svg width="16" height="16" viewBox="0 0 16 16" fill="none" xmlns="http://www.w3.org/2000/svg" data-fui-icon="true">
  <path
    d="M12.167 1.75C13.3174 1.75018 14.2498 2.68268 14.25 3.83301V12.167C14.2498 13.3173 13.3173 14.2498 12.167 14.25H3.83301C2.68268 14.2498 1.75018 13.3174 1.75 12.167V3.83301C1.75018 2.68267 2.68267 1.75018 3.83301 1.75H12.167ZM3.83301 3.25C3.5111 3.25018 3.25018 3.5111 3.25 3.83301V12.167C3.25018 12.4889 3.51109 12.7498 3.83301 12.75H12.167C12.4889 12.7498 12.7498 12.4889 12.75 12.167V3.83301C12.7498 3.51109 12.4889 3.25018 12.167 3.25H3.83301ZM6.42676 8.71875C6.67534 8.38763 7.14529 8.32088 7.47656 8.56934C7.80768 8.81792 7.87443 9.28787 7.62598 9.61914L6.37891 11.2822L5.77832 10.832V10.833L6.37891 11.2822C6.14008 11.6007 5.6935 11.6778 5.3623 11.457L4.6123 10.957C4.26783 10.7274 4.17491 10.2616 4.4043 9.91699C4.63405 9.57236 5.09969 9.47925 5.44434 9.70898L5.60352 9.81543L6.42676 8.71875ZM10.833 9.25C11.2472 9.25 11.583 9.58579 11.583 10C11.583 10.4142 11.2472 10.75 10.833 10.75H9.16699C8.75278 10.75 8.41699 10.4142 8.41699 10C8.41699 9.58579 8.75278 9.25 9.16699 9.25H10.833ZM6.42676 4.71777C6.67537 4.38677 7.14533 4.31994 7.47656 4.56836C7.80776 4.81692 7.87445 5.28686 7.62598 5.61816L6.37891 7.28223L5.77832 6.83105V6.83203L6.37891 7.28223C6.14005 7.60058 5.69347 7.67684 5.3623 7.45605L4.6123 6.95605C4.26786 6.72632 4.17481 6.26059 4.4043 5.91602C4.63404 5.57143 5.09971 5.47836 5.44434 5.70801L5.60352 5.81445L6.42676 4.71777ZM10.8721 5.25C11.2863 5.25004 11.6221 5.58581 11.6221 6C11.6221 6.41419 11.2863 6.74996 10.8721 6.75H9.20508C8.79098 6.74986 8.45508 6.41413 8.45508 6C8.45508 5.58587 8.79098 5.25014 9.20508 5.25H10.8721Z"
    fill="currentColor"
  />
</svg>

<svg xmlns="http://www.w3.org/2000/svg" width="16" height="16" fill="none" data-fui-icon="true" viewBox="0 0 16 16"><path fill="currentColor" d="M12.167 1.75c1.15 0 2.083.933 2.083 2.083v8.334c0 1.15-.933 2.083-2.083 2.083H3.833a2.083 2.083 0 0 1-2.083-2.083V3.833c0-1.15.933-2.083 2.083-2.083zm-8.334 1.5a.583.583 0 0 0-.583.583v8.334c0 .322.261.583.583.583h8.334a.583.583 0 0 0 .583-.583V3.833a.583.583 0 0 0-.583-.583zm2.594 5.469a.75.75 0 0 1 1.199.9l-1.247 1.663-.6-.45v.001l.6.45a.75.75 0 0 1-1.017.174l-.75-.5a.75.75 0 0 1 .832-1.248l.16.106zm4.406.531a.75.75 0 0 1 0 1.5H9.167a.75.75 0 0 1 0-1.5zM6.427 4.718a.75.75 0 0 1 1.199.9L6.379 7.282l-.6-.45.6.45a.75.75 0 0 1-1.017.174l-.75-.5a.75.75 0 0 1 .832-1.248l.16.106zm4.445.532a.75.75 0 0 1 0 1.5H9.205a.75.75 0 0 1 0-1.5z"/></svg>
